!! 00000] TT[WS
!!!OTL: Da Liaoxian
!!!ARE: Asia, China, Shanxi Licheng
!! Ethnic Group: Han
!! WI, 266 (2)
!!!SCT: J0315
!!!YEM: Copyright 1995, estate of Helmut Schaffrath.
**kern
*ICvox
*Ivox
*M2/4
*k[b-]
*F:
{4cc
4cc
=1
8dd
8ff
4cc
=2
8cc
8dd
8cc
8a
=3
8g
8f
4g}
=4
{8g
8a
4cc
=5
8dd
8ff
4cc
=6
8a
8g
8f
8f
=7
8g
8f
4g}
=8
{8a
8f
4g
=9
8a
8f
4g
=10
8a
8g
8a
8g
=11
8a
8f
4g}
=12
{8cc
8a
4cc
=13
8g
8a
8cc
8f
=14
8d
4f
8a
=15
4g
8g
8d
=16
2c}
==
!!!AGN: Xiaodiao. XÅshi
!!!ONB: ESAC (Essen Associative Code) Database: CHINA
!!!AMT: simple duple
!!!AIN: vox
!!!EED: Helmut Schaffrath
!!!EEV: 1.0
*-
